X: 1
T: Gypsy Princess
R: barndance
N: Eileen O'Brien @ Ceol Aneas 2019
M: 4/4
L: 1/8
K: Gmaj
B3 B2 G|ABAG E2 DE|GFBG d2 Bd|(3efe dB ADGA|
B2 BA B2  BG|ABAG E2 DG|GFGB de dB|1 (3ABA GF G2 A:|2 (3ABA GFG Bc||
|:d2 dB d2 dc|ABBA GABd|e2 ed e2 ed|ABBA GA Bc|
d2 dB d2 dc|ABBA GABdedge dBAc|B2 GF G:|
